packages/calcite-ui-icons/icons/catalog-24.svg

<?xml version="1.0" encoding="UTF-8"?><svg id="icons" xmlns="http://www.w3.org/2000/svg" viewBox="0 0 24 24"><defs><style>.cls-1{fill:none;}</style></defs><rect class="cls-1" width="24" height="24"/><path d="M19.5,2H4.5L0,12v10h24v-10l-4.5-10ZM23,21H1v-8h5.88184l1.5,3h7.23633l1.5-3h5.88184v8ZM17,6H7v-1h10v1ZM18,7v2H6v-2h12ZM20,10v2h-3.5l-1.5,3h-6l-1.5-3h-3.5v-2h16ZM21,12v-3h-2v-3h-1v-2H6v2h-1v3h-2v3H1L5,3h14l4,9h-2Z"/></svg>

<svg xmlns="http://www.w3.org/2000/svg" viewBox="0 0 24 24"><path d="M0 0h24v24H0z" style="fill:none"/><path d="M19.5 2h-15L0 12v10h24V12zM23 21H1v-8h5.882l1.5 3h7.236l1.5-3H23zM17 6H7V5h10zm1 1v2H6V7zm2 3v2h-3.5L15 15H9l-1.5-3H4v-2zm1 2V9h-2V6h-1V4H6v2H5v3H3v3H1l4-9h14l4 9z"/></svg>
